src/img/header/svg-sprite.svg

<svg xmlns="http://www.w3.org/2000/svg" aria-hidden="true" style="position:absolute;width:0;height:0;overflow:hidden">
  <defs>
    <symbol id="icon-logo-header" viewBox="0 0 229 32">
<path d="M0 32v-32h5.702l14.084 10.383h0.213l14.084-10.383h5.702v32h-6.808v-23.049l-9.659 6.803v16.246h-6.808v-16.246l-9.701-6.803v23.049h-6.808z"></path>
<path d="M46.174 32v-32h6.808v32h-6.808z"></path>
<path d="M59.356 32v-32h6.893l21.53 23.004v-23.004h6.808v32h-6.893l-21.53-23.049v23.049h-6.808z"></path>
<path d="M100.96 32v-32h6.808v32h-6.808z"></path>
<path d="M114.142 32v-32h5.701l14.084 10.383h0.213l14.084-10.383h5.702v32h-6.808v-23.049l-9.659 6.803v16.246h-6.808v-16.246l-9.701-6.803v23.049h-6.808z"></path>
<path d="M157.764 32l13.701-32h10.51l13.701 32h-7.404l-2.893-6.758h-17.317l-2.893 6.758h-7.403zM170.528 19.424h12.382l-5.914-13.829h-0.553l-5.914 13.829z"></path>
<path d="M199.51 32v-32h6.808v26.182h22.253v5.818h-29.061z"></path>
</symbol>
<symbol id="icon-header-menu" viewBox="0 0 32 32">
<path stroke-linejoin="round" stroke-linecap="round" stroke-miterlimit="4" stroke-width="2" d="M28 13.333h-24"></path>
<path stroke-linejoin="round" stroke-linecap="round" stroke-miterlimit="4" stroke-width="2" d="M28 8h-24"></path>
<path stroke-linejoin="round" stroke-linecap="round" stroke-miterlimit="4" stroke-width="2" d="M28 18.667h-24"></path>
<path stroke-linejoin="round" stroke-linecap="round" stroke-miterlimit="4" stroke-width="2" d="M28 24h-24"></path>
</symbol>
<symbol id="icon-menu-close" viewBox="0 0 32 32">
<path stroke-linejoin="round" stroke-linecap="round" stroke-miterlimit="4" stroke-width="2" d="M24 8l-16 16"></path>
<path stroke-linejoin="round" stroke-linecap="round" stroke-miterlimit="4" stroke-width="2" d="M8 8l16 16"></path>
</symbol>
  </defs>
</svg>

<svg xmlns="http://www.w3.org/2000/svg" aria-hidden="true" style="position:absolute;width:0;height:0;overflow:hidden">
  <defs>
    <symbol id="icon-logo-header" viewBox="0 0 229 32">
      <path d="M0 32V0h5.702l14.084 10.383h.213L34.083 0h5.702v32h-6.808V8.951l-9.659 6.803V32H16.51V15.754L6.809 8.951V32H.001zM46.174 32V0h6.808v32h-6.808zM59.356 32V0h6.893l21.53 23.004V0h6.808v32h-6.893L66.164 8.951V32h-6.808zM100.96 32V0h6.808v32h-6.808zM114.142 32V0h5.701l14.084 10.383h.213L148.224 0h5.702v32h-6.808V8.951l-9.659 6.803V32h-6.808V15.754l-9.701-6.803V32h-6.808zM157.764 32l13.701-32h10.51l13.701 32h-7.404l-2.893-6.758h-17.317L165.169 32h-7.403zm12.764-12.576h12.382l-5.914-13.829h-.553l-5.914 13.829zM199.51 32V0h6.808v26.182h22.253V32H199.51z"/>
    </symbol>
    <symbol id="icon-header-menu" viewBox="0 0 32 32">
      <path stroke-linecap="round" stroke-linejoin="round" stroke-width="2" d="M28 13.333H4M28 8H4M28 18.667H4M28 24H4"/>
    </symbol>
    <symbol id="icon-menu-close" viewBox="0 0 32 32">
      <path stroke-linecap="round" stroke-linejoin="round" stroke-width="2" d="M24 8 8 24M8 8l16 16"/>
    </symbol>
  </defs>
</svg>
